packages/elvis-assets-icons/icons/svg/src/power_service-color.svg

<svg width="24" height="24" viewBox="0 0 24 24" fill="none" xmlns="http://www.w3.org/2000/svg">
<path d="M17.2 10.5C13.5 10.5 10.6 13.2 10.4 16.8H6.3C3 16.8 1.5 13.7 1.5 10.8C1.5 9.1 2 7.5 2.8 6.4C3.7 5.1 5.1 4.5 6.7 4.5H8.2C8.5 6.2 10.1 7.5 11.9 7.5H13.4C14.4 7.5 15.2 6.9 15.5 6H18C18.4 6 18.8 5.7 18.8 5.2C18.8 4.7 18.4 4.5 18 4.5H15.8V3H18C18.4 3 18.8 2.7 18.8 2.2C18.8 1.7 18.4 1.5 18 1.5H15.6C15.3 0.7 14.5 0 13.5 0H12C10.2 0 8.7 1.3 8.3 3H6.8C4.7 3 2.9 3.9 1.7 5.5C0.6 7 0 8.8 0 10.9C0 14.6 2.2 18.4 6.3 18.4H10.5C11.1 21.6 13.9 24 17.2 24C21 24 24 20.9 24 17.2C24 13.5 21 10.5 17.2 10.5ZM12 1.6H13.5C13.9 1.6 14.3 1.9 14.3 2.4V5.4C14.2 5.7 13.9 6 13.5 6H12C10.8 6 9.8 5 9.8 3.8C9.8 2.6 10.8 1.6 12 1.6ZM17.2 22.4C14.4 22.4 12 20 12 17.2C12 14.4 14.3 12 17.2 12C20.1 12 22.4 14.4 22.4 17.2C22.4 20 20 22.4 17.2 22.4Z" fill="black"/>
<path d="M17.199 18.8001C16.599 18.8001 16.099 19.3001 16.099 19.9001C16.099 20.5001 16.599 21.0001 17.199 21.0001C17.799 21.0001 18.299 20.5001 18.299 19.9001C18.299 19.3001 17.799 18.8001 17.199 18.8001Z" fill="#29D305"/>
<path d="M17.201 17.9997C17.701 17.9997 18.001 17.6997 18.001 17.1997V14.1997C18.001 13.6997 17.701 13.3997 17.201 13.3997C16.701 13.3997 16.401 13.7997 16.401 14.1997V17.1997C16.401 17.6997 16.801 17.9997 17.201 17.9997Z" fill="#29D305"/>
</svg>

<svg width="24" height="24" fill="none" xmlns="http://www.w3.org/2000/svg"><path d="M17.2 10.5c-3.7 0-6.6 2.7-6.8 6.3H6.3c-3.3 0-4.8-3.1-4.8-6 0-1.7.5-3.3 1.3-4.4.9-1.3 2.3-1.9 3.9-1.9h1.5c.3 1.7 1.9 3 3.7 3h1.5c1 0 1.8-.6 2.1-1.5H18c.4 0 .8-.3.8-.8s-.4-.7-.8-.7h-2.2V3H18c.4 0 .8-.3.8-.8s-.4-.7-.8-.7h-2.4C15.3.7 14.5 0 13.5 0H12c-1.8 0-3.3 1.3-3.7 3H6.8c-2.1 0-3.9.9-5.1 2.5C.6 7 0 8.8 0 10.9c0 3.7 2.2 7.5 6.3 7.5h4.2c.6 3.2 3.4 5.6 6.7 5.6 3.8 0 6.8-3.1 6.8-6.8 0-3.7-3-6.7-6.8-6.7zM12 1.6h1.5c.4 0 .8.3.8.8v3c-.1.3-.4.6-.8.6H12c-1.2 0-2.2-1-2.2-2.2 0-1.2 1-2.2 2.2-2.2zm5.2 20.8c-2.8 0-5.2-2.4-5.2-5.2 0-2.8 2.3-5.2 5.2-5.2 2.9 0 5.2 2.4 5.2 5.2 0 2.8-2.4 5.2-5.2 5.2z" fill="#000"/><path d="M17.199 18.8c-.6 0-1.1.5-1.1 1.1 0 .6.5 1.1 1.1 1.1.6 0 1.1-.5 1.1-1.1 0-.6-.5-1.1-1.1-1.1zM17.201 18c.5 0 .8-.3.8-.8v-3c0-.5-.3-.8-.8-.8s-.8.4-.8.8v3c0 .5.4.8.8.8z" fill="#29D305"/></svg>
